svg/fluentui-system-icons/ic_fluent_eye_lines_20_regular.svg

<svg width="20" height="20" viewBox="0 0 20 20" fill="none" xmlns="http://www.w3.org/2000/svg">
<path d="M10 3C8.46873 3 7.20743 3.40079 6.18171 4H10C12.5572 4 14.2365 5.26978 15.2937 6.62065C15.8246 7.29902 16.1945 7.99405 16.4307 8.54778C16.5487 8.82435 16.6319 9.06202 16.6846 9.24036C16.7269 9.38349 16.7421 9.46371 16.7474 9.49145L16.749 9.5L16.7474 9.50855C16.7421 9.53629 16.7269 9.61651 16.6846 9.75964C16.6319 9.93798 16.5487 10.1757 16.4307 10.4522C16.1945 11.0059 15.8246 11.701 15.2937 12.3793C14.2365 13.7302 12.5572 15 10 15H6.18171C7.20743 15.5992 8.46873 16 10 16C11.5313 16 12.7926 15.5992 13.8183 15C14.7638 14.4477 15.5091 13.7267 16.0813 12.9957C16.6754 12.2365 17.0868 11.4628 17.3505 10.8447C17.4825 10.5353 17.5791 10.2612 17.6436 10.0431C17.7013 9.84776 17.75 9.64341 17.75 9.5C17.75 9.35659 17.7013 9.15224 17.6436 8.95691C17.5791 8.73877 17.4825 8.46472 17.3505 8.15534C17.0868 7.5372 16.6754 6.76348 16.0813 6.00435C15.5091 5.2733 14.7638 4.55235 13.8183 4C12.7926 3.40079 11.5313 3 10 3ZM10 6H3.92215C4.18932 5.65904 4.49419 5.32035 4.83949 5H10V6ZM10 13C11.933 13 13.5 11.433 13.5 9.5C13.5 7.567 11.933 6 10 6V7H3.23788C3.02745 7.3533 2.85526 7.69283 2.71747 8H7.99982C8.45592 7.39278 9.18209 7 10 7C11.3807 7 12.5 8.11929 12.5 9.5C12.5 10.8807 11.3807 12 10 12C9.18209 12 8.45592 11.6072 7.99982 11H2.71747C2.85526 11.3072 3.02745 11.6467 3.23788 12H10V13ZM10 13H3.92215C4.18932 13.341 4.49419 13.6797 4.83949 14H10V13ZM7.55001 9H2.3439C2.29183 9.18188 2.25 9.36711 2.25 9.5C2.25 9.63289 2.29183 9.81812 2.3439 10H7.55001C7.51722 9.83845 7.5 9.67123 7.5 9.5C7.5 9.32877 7.51722 9.16155 7.55001 9Z" fill="#212121"/>
</svg>

<svg xmlns="http://www.w3.org/2000/svg" width="20" height="20"><path d="M10 3c-1.531 0-2.793.4-3.818 1H10c2.557 0 4.236 1.27 5.294 2.62.53.679.9 1.374 1.137 1.928.118.276.2.514.254.692.042.143.057.224.062.251l.002.009-.002.009c-.005.027-.02.108-.062.25a6.506 6.506 0 0 1-.254.693 8.731 8.731 0 0 1-1.137 1.927C14.236 13.73 12.557 15 10 15H6.182c1.025.6 2.287 1 3.818 1 1.531 0 2.793-.4 3.818-1a8.048 8.048 0 0 0 2.263-2.004 9.735 9.735 0 0 0 1.27-2.151c.132-.31.228-.584.293-.802.057-.195.106-.4.106-.543 0-.143-.049-.348-.106-.543a7.51 7.51 0 0 0-.293-.802 9.733 9.733 0 0 0-1.27-2.15A8.048 8.048 0 0 0 13.818 4C12.793 3.4 11.531 3 10 3Zm0 3H3.922a8.57 8.57 0 0 1 .917-1H10v1Zm0 7a3.5 3.5 0 1 0 0-7v1H3.238a9.71 9.71 0 0 0-.52 1H8a2.5 2.5 0 1 1 0 3H2.717a9.8 9.8 0 0 0 .52 1H10v1Zm0 0H3.922c.267.341.572.68.917 1H10v-1ZM7.55 9H2.344a2.04 2.04 0 0 0-.094.5c0 .133.042.318.094.5H7.55a2.512 2.512 0 0 1 0-1Z"/></svg>
